X: 203
T: Song of the Grass Dance (c)
C: Teton Sioux band 1911-1914
N: Derived from sioux198.krn
O: South Dakota, U.S.A.
N: Teton Sioux Music by Frances Densmore, 1918
Z: transcribed to **kern format by Craig Sapp
L: 1/8
M: 2/4
Q: 1/4=58
K: G clef=treble
%%linebreak <none>
B2(3c B B [I:setbarnb 2]| 
G EE2 | 
B2(3c B B | 
G E E3/ G/ | 
D2D3/ D/ | 
B,2-B,3/ B,/ | 
B,2-B,3/ B,/ | 
B,2B,3/ D/ | 
D2E/ D3/ ||  
[M:3/4]B,2B,> A, B, B, | 
B,6 | 
B,6 |]  



